X:1
T:Binorie
M:4/4
L:1/4
K:C
 C| E G A d| c3/2 A/2 Bc/2-B/2| AA/2-G/2 F G| A2 A| c| GG/2-F/2 EE/2-D/2|\
 C3/2 D/2 E A| G3/2 F/2 D D| C3||
